X:7
T:Trip to Galway, The
D:The Well Tempered Bow, Liz and Yvonne Kane
M:6/8
L:1/8
K:D Dorian
c|:AFD DFA|~c3 AGF|E/F/GE ~C3|EFG A=Bc|
|AFD DE/F/G|A=Bc dag|fed cAG|1 Ad^c d2 c:|2 Ad^c d2 e||
|:fed afd|de/f/g afd|edc gec|cde/f/ gfe|
|fed edc|Afd cAG|E/F/GA cAG|1 Ad^c d2 e:|2 Ad^c d2 c||
